X:128
T:Dixie Hoedown
C:Jimmy Gaudreau
N:Transcribed by Larry Tanner
R:bluegrass
L:1/8
Q:1/4=210
M:4/4
K:C
[G2G,2] [GG,][GG,] [GG,][GG,] [G2G,2] | [GG,][GG,] [GG,][GG,] [GG,]d ^cd |: "G"B2 Bc BA GF | 
"C"ED Ec z2 d2 | "G"B2 Bc BA GB | "D"AG ^FE Dd ^cd | "G"B2 Bc BA GF | "C"ED Ec zB Ac | 
"G"BA GB "D"AG ^FG |1 zG GG zd ^cd :|2 zG GG z2 de | g2 ga ba g2 | "Bm"^fe fa2g f2 | 
"Am"e2 e^f gf ed | "G"dd d4 AB | "D"c2 Ac BA GB | AG ^FE FE DF | ED CE DC A,B, | 
"G"CD E^F GA cd/e/ | g2 ga ba g2 | "Bm"^fe fa2g f2 | "Am"e2 e^f gf ed | "G"dd d4 AB | 
"D"c2 Ac BA GB | AG ^FE FE DF | ED CE DC B,A, | "G"G,8 | 


